X:1
T:James Gibb editions
T:Psalm 117 (Becker) - Schütz
T:#
%%score [ 1 2 3 4 ]
L:1/8
Q:1/4=98
M:2/2
K:C
V:1 treble nm="Soprano" snm="S"
V:2 treble nm="Alto" snm="A "
V:3 treble-8 nm="Tenor" snm="T"
V:4 bass nm="Bass" snm="B "
V:1
"^Cornelius Becker\n(1561-1604)""^Psalm 117, SWV 215""^Heinrich Schütz\n(1585-1672)" d4 e2 (dc) | %1
w: Lobt Gott mit *|
w: Sein Gnad und *|
 B4 A4 | G2 A2 B4 | z2 d2 B2 c2 | (d6 cB |[M:2/2] A2 c2 B4 | A8 :| A4 A2 B2 | c6 d2 | c2 A2 G4- | %10
w: Schall, ihr|Hei- den all,|ihr Völ- ker|preist * *|* den Her-|ren.|Was er ver-|spricht, das|trü- get nicht,|
w: Gunst walt|ü- ber uns,|er hilft von|Her\- * *|* zen ger-|ne.||||
 G2 G2 A2 B2 | c2 B4 A2 | B4 z2 d2 | c4 B2 B2 | A4 z2 f2 | e4 d4 | c4 z2 cc | d2 e2 f2 d2 | %18
w: * e- wig sein|Wort wird blei-|ben. Mit|fröh- li- chem|Mund, von|Her- zens|Grund sin- gen|wir zu al- len|
w: ||||||||
 ^c2 d4 c2) | d2 d2 c2 B2 | A2 d2 c2 B2 | A2 A2 ^G4 | A2 F2 A2 B2 | c2 F2 A2 B2 | c2 B2 A4 | %25
w: Zei\- * *|ten. Hal- le- lu-|ja, Hal- le- lu-|ja mit Freu-|den, Hal- le- lu-|ja, Hal- le- lu-|ja mit Freu-|
w: |||||||
 B2 d2 c2 B2 | A2 d2 c2 B2 | A2 A2 ^G4 | A2 F2 A2 B2 | c2 F2 A2 B2 | c2 B2 A4 | B2 B2 c2 c2 | %32
w: den, Hal- le- lu-|ja, Hal- le- lu-|ja mit Freu-|den, Hal- le- lu-|ja, Hal- le- lu-|ja mit Freu-|den, Hal- le- lu-|
w: |||||||
 c4 B4 | A8 | B8 |] %35
w: ja mit|Freu-|den.|
w: |||
V:2
 G4 E2 ^F2 | G4 ^F4 | G2 (^FE) F4 | ^F2 (G4 (FE)) | D2 ^F2 G2 G,2 |[M:2/2] D2 E2 E4 | E8 :| %7
w: Lobt Gott mit|Schall, ihr|Hei- den * all,|ihr Völ- ker *|preist, ihr Völ- ker|preist den Her-|ren.|
w: Sein Gnad und|Gunst walt|ü- ber * uns,|er hilft, * *|* er hilft von|Her- zen ger-|ne.|
 E4 D2 B,2 | E6 G2 | E2 D2 D4- | D2 E2 ^F2 G2 | C2 D2 E4 | ^D4 z2 B,2 | E4 E2 E2 | E4 z2 D2 | %15
w: Was er ver-|spricht, das|trü- get nicht,|* e- wig sein|Wort wird blei-|ben. Mit|fröh- li- chem|Mund, von|
w: ||||||||
 G4 G4 | G4 z2 EE | G2 G2 A2 A2 | A8 | A2 F2 A2 G2 | E2 F2 A2 G2 | E2 D2 E4 | E2 D2 E2 ^G2 | %23
w: Her- zens|Grund sin- gen|wir zu al- len|Zei-|ten. Hal- le- lu-|ja, Hal- le- lu-|ja mit Freu-|den, Hal- le- lu-|
w: ||||||||
 A2 D2 E2 G2 | A2 G2 ^F4 | G2 F2 A2 G2 | E2 F2 A2 G2 | E2 F2 E4 | E2 D2 E2 ^G2 | A2 D2 E2 G2 | %30
w: ja, Hal- le- lu-|ja mit Freu-|den, Hal- le- lu-|ja, Hal- le- lu-|ja mit Freu-|den, Hal- le- lu-|ja, Hal- le- lu-|
w: |||||||
 A2 G2 ^F4 | G2 G2 G2 A2 | A4 G2 (G2- | G2 ^FE F4) | G8 |] %35
w: ja mit Freu-|den, Hal- le- lu-|ja mit Freu\-||den.|
w: |||||
V:3
 z8 | z4 d4 | e2 (dc) B4 | z2 B2 G2 A2 | B2 A2 G2 E2 |[M:2/2][K:treble-8] ^F2 A2 ^G4 | A8 :| %7
w: |Lobt|Gott mit * Schall,|ihr Hei- den|all, ihr Völ- ker|preist den Her-|ren.|
w: |Sein|Gnad und * Gunst|walt ü- ber|uns, er hilft von|Her- zen ger-|ne.|
 c4 A2 ^G2 | A6 G2 | G2 ^F2 G4- | G2 B2 d2 D2 | E2 G2 E4 | ^F4 z2 G2 | (G2 A3) A G2 | A4 z2 A2 | %15
w: Was er ver-|spricht, das|trü- get nicht,|* e- wig sein|Wort wird blei-|ben. Mit|fröh\- * li- chem|Mund, von|
w: ||||||||
 (G2 c4) B2 | c4 z2 cA | B2 G2 d2 f2 | e8 | d2 A2 A2 d2 | ^c2 A2 A2 d2 | ^c2 d2 B4 | A2 A2 c2 d2 | %23
w: Her\- * zens|Grund sin- gen|wir zu al- len|Zei-|ten. Hal- le- lu-|ja, Hal- le- lu-|ja mit Freu-|den, Hal- le- lu-|
w: ||||||||
 e2 A2 c2 d2 | e2 d2 d4 | d2 A2 A2 d2 | ^c2 A2 A2 d2 | !courtesy!^c2 d2 B4 | A2 A2 c2 d2 | %29
w: ja, Hal- le- lu-|ja mit Freu-|den, Hal- le- lu-|ja, Hal- le- lu-|ja mit Freu-|den, Hal- le- lu-|
w: ||||||
 e2 A2 c2 d2 | e2 d2 d4 | d2 d2 e2 e2 | A4 d4 | d8 | d8 |] %35
w: ja, Hal- le- lu-|ja mit Freu-|den, Hal- le- lu-|ja mit|Freu-|den.|
w: ||||||
V:4
 z8 | z8 | z8 | z8 | z2 D,2 B,,2 C,2 |[M:2/2] D,2 A,,2 E,4 | A,,8 :| A,4 F,2 E,2 | A,,6 B,,2 | %9
w: ||||Ihr Völ- ker|preist den Her-|ren.|Was er ver-|spricht, das|
w: ||||Er hilft von|Her- zen ger-|ne.|||
 C,2 D,2 G,4- | G,2 E,2 D,2 B,,2 | A,,2 G,,2 C,4 | B,,4 z2 G,,2 | (C,3 D,) E,2 E,2 | A,,4 z2 D,2 | %15
w: trü- get nicht,|* e- wig sein|Wort wird blei-|ben. Mit|fröh\- * li- chem|Mund, von|
w: ||||||
 (E,3 F,) G,4 | C,4 z2 A,A, | G,2 E,2 D,2 D,2 | A,8 | D,2 D,2 F,2 G,2 | A,2 D,2 F,2 G,2 | %21
w: Her\- * zens|Grund sin- gen|wir zu al- len|Zei-|ten. Hal- le- lu-|ja, Hal- le- lu-|
w: ||||||
 A,2 D,2 E,4 | A,,2 D,2 C,2 B,,2 | A,,2 D,2 C,2 B,,2 | A,,2 B,,2 D,4 | G,,2 D,2 F,2 G,2 | %26
w: ja mit Freu-|den, Hal- le- lu-|ja, Hal- le- lu-|ja mit Freu-|den, Hal- le- lu-|
w: |||||
 A,2 D,2 F,2 G,2 | A,2 D,2 E,4 | A,,2 D,2 C,2 B,,2 | A,,2 D,2 C,2 B,,2 | A,,2 B,,2 D,4 | %31
w: ja, Hal- le- lu-|ja mit Freu-|den, Hal- le- lu-|ja, Hal- le- lu-|ja mit Freu-|
w: |||||
 G,,2 G,2 C2 A,2 | F,4 G,4 | D,8 | G,8 |] %35
w: den, Hal- le- lu-|ja mit|Freu-|den.|
w: ||||

